src/assets/icons/letters,simple,sans-p.svg

<svg width="48" height="48" viewBox="0 0 48 48" fill="none" xmlns="http://www.w3.org/2000/svg">
<rect opacity="0.2" x="5" y="5" width="38" height="38" rx="4" fill="black"/>
<path d="M15.9239 36H20.6906V28.6903H24.6977C29.8827 28.6903 32.899 25.5969 32.899 21.0945C32.899 16.614 29.9377 13.4545 24.8188 13.4545H15.9239V36ZM20.6906 24.8704V17.3516H23.9051C26.6572 17.3516 27.9892 18.8487 27.9892 21.0945C27.9892 23.3292 26.6572 24.8704 23.9271 24.8704H20.6906Z" fill="black"/>
</svg>

<svg xmlns="http://www.w3.org/2000/svg" width="48" height="48" fill="none" viewBox="0 0 48 48">
  <rect width="38" height="38" x="5" y="5" fill="#000" opacity=".2" rx="4"/>
  <path fill="#000" d="M15.924 36h4.767v-7.31h4.007c5.185 0 8.201-3.093 8.201-7.596 0-4.48-2.961-7.64-8.08-7.64h-8.895V36zm4.767-11.13v-7.518h3.214c2.752 0 4.084 1.497 4.084 3.742 0 2.235-1.332 3.776-4.062 3.776h-3.236z"/>
</svg>
